icons/night/markdown.svg

<svg width="16" height="16" viewBox="0 0 16 16" fill="none" xmlns="http://www.w3.org/2000/svg">
<path fill-rule="evenodd" clip-rule="evenodd" d="M2 3C1.73478 3 1.48043 3.10536 1.29289 3.29289C1.10536 3.48043 1 3.73478 1 4V12C1 12.2652 1.10536 12.5196 1.29289 12.7071C1.48043 12.8946 1.73478 13 2 13H14C14.2652 13 14.5196 12.8946 14.7071 12.7071C14.8946 12.5196 15 12.2652 15 12V4C15 3.73478 14.8946 3.48043 14.7071 3.29289C14.5196 3.10536 14.2652 3 14 3H2ZM3 5V11H4.305V7.546L5.144 9.817H5.821L6.695 7.511V11H8V5H6.583L5.525 7.717L4.488 5H3ZM9 8L11.5 11L14 8H12V5H11V8H9Z" fill="#27A1B9"/>
</svg>

<svg xmlns="http://www.w3.org/2000/svg" fill="none" viewBox="0 0 16 16"><path
    fill="#27a1b9"
    fill-rule="evenodd"
    d="M2 3a1 1 0 0 0-1 1v8a1 1 0 0 0 1 1h12a1 1 0 0 0 1-1V4a1 1 0 0 0-1-1H2Zm1 2v6h1.305V7.546l.839 2.271h.677l.874-2.306V11H8V5H6.583L5.525 7.717 4.488 5H3Zm6 3 2.5 3L14 8h-2V5h-1v3H9Z"
    clip-rule="evenodd"
  /></svg>
